packages/ui-solid/icons/signature_24.svg

<svg width="24" height="24" viewBox="0 0 24 24" fill="none" xmlns="http://www.w3.org/2000/svg">
<path fill-rule="evenodd" clip-rule="evenodd" d="M2.52908 5.06931C2.52908 4.57226 2.93203 4.16931 3.42908 4.16931H16.2869C16.784 4.16931 17.1869 4.57226 17.1869 5.06931C17.1869 5.56637 16.784 5.96931 16.2869 5.96931H3.42908C2.93203 5.96931 2.52908 5.56637 2.52908 5.06931ZM2.52908 9.29882C2.52908 8.80177 2.93203 8.39882 3.42908 8.39882H9.858C10.3551 8.39882 10.758 8.80177 10.758 9.29882C10.758 9.79588 10.3551 10.1988 9.858 10.1988H3.42908C2.93203 10.1988 2.52908 9.79588 2.52908 9.29882ZM13.333 9.49366C13.9361 9.31741 14.5569 9.43645 15.108 9.84426L15.1315 9.86165L15.1538 9.88053C16.0422 10.632 16.2696 11.6359 16.0966 12.6236C15.9337 13.5533 15.4203 14.4929 14.8111 15.3427C14.2661 16.103 13.5981 16.8544 12.908 17.5437C13.1205 17.5354 13.4078 17.4844 13.7914 17.3509C14.6367 16.9228 15.7024 16.0843 16.5333 15.3533C17.2443 14.7277 18.3509 14.9807 18.7508 15.7645L20.0782 14.8912C20.4935 14.618 21.0516 14.7332 21.3247 15.1484C21.5979 15.5637 21.4828 16.1218 21.0675 16.395L19.2676 17.5791C18.549 18.0519 17.6468 17.7607 17.2743 17.0901C16.462 17.7733 15.4461 18.5419 14.5422 18.9879L14.4962 19.0106L14.4479 19.0279C13.3972 19.405 12.4369 19.4742 11.649 19.0814C11.5602 19.0372 11.4766 18.9886 11.3979 18.9361C11.0482 19.2345 10.7128 19.5052 10.406 19.7406C10.0117 20.0433 9.4467 19.969 9.14406 19.5747C8.84142 19.1804 8.91572 18.6154 9.31002 18.3128C9.63701 18.0618 9.99502 17.7707 10.3649 17.4505C10.3393 17.3651 10.3172 17.2796 10.298 17.1945C9.98287 15.7973 10.3452 13.9994 10.7144 12.8337L10.717 12.8255L10.7197 12.8174C10.952 12.1298 11.4058 11.1172 12.0402 10.3889C12.3564 10.026 12.7863 9.65343 13.333 9.49366ZM11.9777 15.921C12.4816 15.3941 12.9553 14.842 13.3482 14.294C13.8962 13.5295 14.2293 12.8513 14.3236 12.313C14.4056 11.8449 14.3081 11.5345 14.0146 11.275C13.9054 11.1996 13.8635 11.2131 13.8422 11.22C13.8407 11.2205 13.8392 11.221 13.8379 11.2214C13.7605 11.244 13.6064 11.3314 13.3975 11.5712C12.9838 12.0461 12.6247 12.8051 12.4278 13.3854C12.1814 14.1657 11.9905 15.1117 11.9777 15.921ZM2.52908 13.1054C2.52908 12.6083 2.93203 12.2054 3.42908 12.2054H7.71503C8.21209 12.2054 8.61503 12.6083 8.61503 13.1054C8.61503 13.6024 8.21209 14.0054 7.71503 14.0054H3.42908C2.93203 14.0054 2.52908 13.6024 2.52908 13.1054Z" fill="#007AFF"/>
</svg>

<svg xmlns="http://www.w3.org/2000/svg" width="24" height="24" fill="none"><path fill="currentColor" fill-rule="evenodd" d="M2.53 5.07a.9.9 0 0 1 .9-.9h12.857a.9.9 0 1 1 0 1.8H3.429a.9.9 0 0 1-.9-.9m0 4.229a.9.9 0 0 1 .9-.9h6.428a.9.9 0 1 1 0 1.8H3.429a.9.9 0 0 1-.9-.9m10.803.195c.603-.177 1.224-.058 1.775.35l.024.018.022.019c.888.751 1.116 1.755.943 2.743-.163.93-.677 1.869-1.286 2.719-.545.76-1.213 1.511-1.903 2.2.213-.008.5-.059.883-.192.846-.428 1.911-1.267 2.742-1.998.711-.625 1.818-.372 2.218.412l1.327-.874a.9.9 0 1 1 .99 1.504l-1.8 1.184a1.4 1.4 0 0 1-1.994-.489c-.812.683-1.828 1.452-2.732 1.898l-.046.023-.048.017c-1.05.377-2.011.446-2.799.053a2 2 0 0 1-.251-.145c-.35.299-.685.57-.992.805a.9.9 0 1 1-1.096-1.428c.327-.251.685-.542 1.055-.862a4 4 0 0 1-.067-.256c-.315-1.398.047-3.196.416-4.361l.003-.008.003-.009c.232-.687.686-1.7 1.32-2.428.316-.363.746-.736 1.293-.895m-1.355 6.427c.504-.527.977-1.079 1.37-1.627.548-.764.881-1.443.976-1.981.082-.468-.016-.779-.31-1.038-.109-.075-.15-.062-.172-.055l-.004.001c-.077.023-.232.11-.44.35-.414.475-.773 1.234-.97 1.814-.247.78-.437 1.727-.45 2.536m-9.449-2.816a.9.9 0 0 1 .9-.9h4.286a.9.9 0 1 1 0 1.8H3.429a.9.9 0 0 1-.9-.9" clip-rule="evenodd"/></svg>
